packages/icons/raw/imported/GenericBlock.svg

<svg width="32" height="32" viewBox="0 0 32 32" fill="none" xmlns="http://www.w3.org/2000/svg">
<path d="M22.9305 9.82214C23.1257 9.62688 23.1257 9.3103 22.9305 9.11504C22.7352 8.91977 22.4186 8.91977 22.2234 9.11504L22.9305 9.82214ZM9.06952 22.2689C8.87426 22.4641 8.87426 22.7807 9.06952 22.976C9.26479 23.1713 9.58137 23.1713 9.77663 22.976L9.06952 22.2689ZM22.2234 9.11504L9.06952 22.2689L9.77663 22.976L22.9305 9.82214L22.2234 9.11504ZM25 16C25 20.9706 20.9706 25 16 25V26C21.5228 26 26 21.5228 26 16H25ZM16 25C11.0294 25 7 20.9706 7 16H6C6 21.5228 10.4772 26 16 26V25ZM7 16C7 11.0294 11.0294 7 16 7V6C10.4772 6 6 10.4772 6 16H7ZM16 7C20.9706 7 25 11.0294 25 16H26C26 10.4772 21.5228 6 16 6V7Z" fill="black"/>
</svg>

<svg width="32" height="32" fill="none" xmlns="http://www.w3.org/2000/svg"><path d="M22.93 9.822a.5.5 0 0 0-.707-.707l.707.707ZM9.07 22.27a.5.5 0 1 0 .707.707l-.707-.707ZM22.223 9.115 9.07 22.269l.707.707L22.93 9.822l-.707-.707ZM25 16a9 9 0 0 1-9 9v1c5.523 0 10-4.477 10-10h-1Zm-9 9a9 9 0 0 1-9-9H6c0 5.523 4.477 10 10 10v-1Zm-9-9a9 9 0 0 1 9-9V6C10.477 6 6 10.477 6 16h1Zm9-9a9 9 0 0 1 9 9h1c0-5.523-4.477-10-10-10v1Z" fill="#000"/></svg>
